!! 00000] TT[WS
!!!OTL: Dingzui diao
!!!ARE: Asia, China, Shanxi Qinyuan
!! Ethnic Group: Han
!! WII, 206 (1)
!!!SCT: J0708
!!!YEM: Copyright 1995, estate of Helmut Schaffrath.
**kern
*ICvox
*Ivox
*M2/4
*k[f#]
*G:
{16ee
8.ee
8ee
8b
=1
4ee
8dd
8b
=2
8ee
8b
8b
8a
=3
4.g
8e}
=4
{8dd
8ee
8ee
8dd
=5
8ee
8dd
8b
8a
=6
8b
8f#
8e
8g
=7
2d}
=8
{8g
8e
8g
8a
=9
8b
8b
8dd
8b
=10
8a
8g
8e
16d
16e
=11
2g}
=12
{8dd
8ee
8ee
8dd
=13
8ee
8dd
8b
8a
=14
8a
8f#
8e
8g
=15
2d}
==
!!!AGN: Xiaodiao. Shidiao
!!!ONB: ESAC (Essen Associative Code) Database: CHINA
!!!AMT: simple duple
!!!AIN: vox
!!!EED: Helmut Schaffrath
!!!EEV: 1.0
*-
